!!!COM: Palestrina, Giovanni Perluigi da
!!!OPR: Assumpta est Maria
!!!OTL: Credo
**kern	**kern	**kern	**kern	**kern	**kern
*Ibass	*Itenor	*Itenor	*Icalto	*Icant	*Icant
!Bassus	!Tenor 2	!Tenor 1	!Altus	!Cantus 2	!Cantus 1
*clefF4	*clefGv2	*clefGv2	*clefG2	*clefG2	*clefG2
*k[]	*k[]	*k[]	*k[]	*k[]	*k[]
*G:mix	*G:mix	*G:mix	*G:mix	*G:mix	*G:mix
*M4/2	*M4/2	*M4/2	*M4/2	*M4/2	*M4/2
=1	=1	=1	=1	=1	=1
0r	0r	0r	1r	1g	1r
.	.	.	1g	2.b	2r
.	.	.	.	.	2g
.	.	.	.	4cc	.
=2	=2	=2	=2	=2	=2
0r	0r	0r	2g	2dd	2b
.	.	.	2e	2g	2cc
.	.	.	2f	2a	2dd
.	.	.	2g	2b	2dd
=3	=3	=3	=3	=3	=3
0r	1r	0r	1c	1cc	1ee
.	1G	.	[1g	1b	[1dd
=4	=4	=4	=4	=4	=4
1G	2.B	2r	0g]	0r	1dd]
.	.	2G	.	.	.
.	4c	.	.	.	.
2G	2d	2B	.	.	1r
2E	2G	2c	.	.	.
=5	=5	=5	=5	=5	=5
2F	2A	2d	1r	0r	0r
2G	2B	2d	.	.	.
2C	1c	1e	1g	.	.
[2c	.	.	.	.	.
=6	=6	=6	=6	=6	=6
4c]	1G	1d	1g	1r	1r
8B	.	.	.	.	.
8A	.	.	.	.	.
2B	.	.	.	.	.
2c	2g	2c	2e	2r	2r
[2C	[2e	[2c	[2g	[2ee	[2cc
=7	=7	=7	=7	=7	=7
2C]	2e]	2c]	2g]	2ee]	2cc]
2C	2e	2G	2g	2ee	2cc
2.G	2.d	2.B	2.g	2.b	2.dd
4G	4d	4B	4g	4b	4dd
=8	=8	=8	=8	=8	=8
1D	2d	1A	1a	1dd	1ff
.	1f	.	.	.	.
2F	.	2A	2a	2cc	2ff
2F	2c	2A	2a	2cc	2ff
=9	=9	=9	=9	=9	=9
1C	2.e	0c	1g	1cc	0ee
.	4f	.	.	.	.
2r	2g	.	2r	2r	.
[2c	[2g	.	[2cc	[2ee	.
=10	=10	=10	=10	=10	=10
2c]	2g]	0r	2cc]	2ee]	0r
2G	2g	.	2b	2dd	.
2A	2e	.	2a	2cc	.
2c	2e	.	2g	2cc	.
=11	=11	=11	=11	=11	=11
2.G	2.d	1r	2.g	2.b	1r
4G	4d	.	4g	4b	.
1C	1c	2r	2g	2cc	2r
.	.	[2c	[2g	[2cc	[2ee
=12	=12	=12	=12	=12	=12
0r	0r	2c]	2g]	2cc]	2ee]
.	.	2G	2g	2b	2dd
.	.	2A	2e	2a	2cc
.	.	2c	2e	2g	2cc
=13	=13	=13	=13	=13	=13
0r	0r	2.G	2.g	2.dd	2.b
.	.	4G	4g	4dd	4b
.	.	1d	1f#	1dd	1a
=14	=14	=14	=14	=14	=14
0C	0e	0c	0g	0ee	0cc
=15	=15	=15	=15	=15	=15
1C	1e	1c	1g	1cc	1ee
1G	1g	1d	1g	1b	1dd
=16	=16	=16	=16	=16	=16
0D	2f#	2d	2a	2a	1dd
.	2.f#	2.d	2.a	2.dd	.
.	.	.	.	.	1r
.	4f#	4d	4a	4dd	.
.	2f#	2d	2b	2dd	.
=17	=17	=17	=17	=17	=17
0r	1g	1c	1cc	1ee	1r
.	1a	2F	2cc	2ff	2r
.	.	[2f	[2a	[2ff	[2cc
=18	=18	=18	=18	=18	=18
0r	0r	2f]	2a]	2ff]	2cc]
.	.	2c	2g	2ee	2cc
.	.	2d	2f#	2dd	2a
.	.	2e	[2g	2cc	2g
=19	=19	=19	=19	=19	=19
1r	1r	1d	2g]	0dd	1a
.	.	.	2f#	.	.
[1G	2r	2r	[1g	.	1b
.	[2d	[2B	.	.	.
=20	=20	=20	=20	=20	=20
2G]	2d]	2B]	1g]	0r	0r
2E	2c	2G	.	.	.
2F	2d	2A	1r	.	.
2G	2e	2B	.	.	.
=21	=21	=21	=21	=21	=21
2.A	4f	1c	1r	1r	0r
.	4e	.	.	.	.
.	2e	.	.	.	.
4G	.	.	.	.	.
1F	2d	1A	2r	2r	.
.	4c	.	[2cc	[2a	.
.	4d	.	.	.	.
=22	=22	=22	=22	=22	=22
1E	1e	0r	2cc]	2a]	2r
.	.	.	2b	2g#	1ee
1r	1r	.	2cc	2a	.
.	.	.	2b	2b	2dd
=23	=23	=23	=23	=23	=23
0r	0r	0r	1a	2.cc	2ee
.	.	.	.	.	2ff
.	.	.	.	8b	.
.	.	.	.	8a	.
.	.	.	2g	2b	2gg
.	.	.	2d	[2dd	[2ff
=24	=24	=24	=24	=24	=24
0r	0r	0r	1a	4dd]	4ff]
.	.	.	.	4cc	4ee
.	.	.	.	1cc	4ee
.	.	.	.	.	8dd
.	.	.	.	.	8cc
.	.	.	1g	.	2dd
.	.	.	.	2b	2dd
=25	=25	=25	=25	=25	=25
2r	2r	1c	0r	2cc	1ee
2c	2g	.	.	2ee	.
2B	2g	2d	.	2dd	1r
2G	2g	2e	.	2b	.
=26	=26	=26	=26	=26	=26
1A	2e	1c	0r	1cc	1r
.	2f#	.	.	.	.
1G	1g	2d	.	2b	2r
.	.	2e	.	2g	2gg
=27	=27	=27	=27	=27	=27
0r	0r	2d	0r	2a	2ff
.	.	2g	.	2b	2dd
.	.	2c	.	2cc	2ee
.	.	2c	.	2cc	2ee
=28	=28	=28	=28	=28	=28
2r	2r	2G	2r	1b	1dd
1G	1B	1d	1g	.	.
.	.	.	.	1r	1r
2E	2c	2G	2g	.	.
=29	=29	=29	=29	=29	=29
1D	1d	1A	1f#	1r	0r
1C	2e	1c	2g	2r	.
.	2g	.	2cc	2ee	.
=30	=30	=30	=30	=30	=30
0r	2g	0r	2b	2dd	1r
.	2e	.	2g	1gg	.
.	[1d	.	2b	.	2r
.	.	.	4a	[2ff	2dd
.	.	.	4g	.	.
=31	=31	=31	=31	=31	=31
0r	0d]	0r	4a	4ff]	2dd
.	.	.	8g	4ee	.
.	.	.	8f	.	.
.	.	.	1g	4dd	2b
.	.	.	.	4cc	.
.	.	.	.	1dd	1a
.	.	.	2f#	.	.
=32	=32	=32	=32	=32	=32
2r	2G	2r	2g	1dd	1b
1G	1B	1d	1g	.	.
.	.	.	.	1r	1r
2G	2B	2d	2g	.	.
=33	=33	=33	=33	=33	=33
2E	2c	2e	2g	0r	0r
2G	2B	2d	2g	.	.
1F	1c	1f	1a	.	.
=34	=34	=34	=34	=34	=34
2C	2c	1e	2g	0r	0r
1c	1e	.	1g	.	.
.	.	2c	.	.	.
2B	2d	2d	2g	.	.
=35	=35	=35	=35	=35	=35
2A	2c	2.e	2a	0r	0r
2G#	2B	.	2b	.	.
.	.	4e	.	.	.
2A	2A	2e	2cc	.	.
2E	2G#	2e	2b	.	.
=36	=36	=36	=36	=36	=36
1F	1A	2c	1a	1r	1r
.	.	2d	.	.	.
2E	2B	2e	2g	2r	2r
[2C	[2c	[2e	[2g	[2cc	[2ee
=37	=37	=37	=37	=37	=37
2C]	2c]	2e]	2g]	2cc]	2ee]
2C	2G	2c	2g	2cc	2ee
[1G	2.B	[1d	[1g	[1b	[1dd
.	4A	.	.	.	.
=38	=38	=38	=38	=38	=38
2G]	2G	2d]	2g]	2b]	2dd]
2D	2A	2d	2f#	2a	2dd
1D	2A	1d	2f#	1a	1dd
.	[2d	.	[2a	.	.
=39	=39	=39	=39	=39	=39
1G	2d]	1B	4a]	2b	1dd
.	.	.	4g	.	.
.	2B	.	1g	2g	.
1D	1A	1d	.	1a	1dd
.	.	.	2f#	.	.
=40	=40	=40	=40	=40	=40
0G	1G	0d	1g	1b	1dd
.	1g	.	1r	1b	2r
.	.	.	.	.	2dd
=41	=41	=41	=41	=41	=41
0r	2f	0r	0r	2a	2dd
.	2e	.	.	2g	2cc
.	1f	.	.	1a	2dd
.	.	.	.	.	[2cc
=42	=42	=42	=42	=42	=42
1r	2e	1r	1r	2cc	2cc]
.	2d	.	.	2dd	2b
2r	1c	2r	2r	1ee	1cc
2c	.	2e	2g	.	.
=43	=43	=43	=43	=43	=43
2B-	1r	2d	2g	0r	0r
2A	.	2c	2f	.	.
1B-	2r	1d	2g	.	.
.	2d	.	[2f	.	.
=44	=44	=44	=44	=44	=44
2A	2f	2c	2f]	0r	0r
2G	2g	2B	2e	.	.
[1F	2.a	2c	2.f	.	.
.	.	[2d	.	.	.
.	4g	.	4g	.	.
=45	=45	=45	=45	=45	=45
1F]	2f	4d]	1a	0r	0r
.	.	4c	.	.	.
.	2e	1c	.	.	.
1G	1d	.	1g	.	.
.	.	2B	.	.	.
=46	=46	=46	=46	=46	=46
2r	2r	2r	2r	2r	1r
2G	2d	2B	2g	2gg	.
1G	1d	1B	1g	1gg	2r
.	.	.	.	.	2gg
=47	=47	=47	=47	=47	=47
0C	1e	1c	1g	2ee	1gg
.	.	.	.	2.gg	.
.	2.g	1e	2r	.	2ee
.	.	.	.	4ff	.
.	.	.	[2c	4ee	[2gg
.	4f	.	.	4dd	.
=48	=48	=48	=48	=48	=48
0C	4e	2.g	4c]	2.cc	4gg]
.	4d	.	4d	.	4ff
.	2c	.	4e	.	4ee
.	.	4f	4f	4dd	4dd
.	4G	4e	2g	1ee	4cc
.	8A	4d	.	.	4b
.	8B	.	.	.	.
.	[2c	4c	[2a	.	4a
.	.	4B	.	.	4g
=49	=49	=49	=49	=49	=49
0D	2c]	2A	2a]	0dd	2f#
.	2B	2.d	1g	.	2g
.	1A	.	.	.	1a
.	.	4c	.	.	.
.	.	2d	2f#	.	.
=50	=50	=50	=50	=50	=50
1G	1G	1B	1g	1dd	1b
1r	1r	1r	1r	1r	1r
=51	=51	=51	=51	=51	=51
1G	1d	0r	1g	1b	1dd
2G	2d	.	2g	2b	2dd
2G	2B	.	2g	2g	2dd
=52	=52	=52	=52	=52	=52
1D	1A	0r	1f#	1a	1dd
1G	1G	.	1g	1b	1dd
=53	=53	=53	=53	=53	=53
0C	1g	2r	2e	2cc	2ee
.	.	2c	2g	2ee	2cc
.	1r	1c	1g	1ee	1cc
=54	=54	=54	=54	=54	=54
0r	0r	2G	2g	2dd	2b
.	.	2G	2g	2dd	2b
.	.	1c	1g	1ee	1cc
=55	=55	=55	=55	=55	=55
2r	2r	2F	2f	1cc	2a
1F	1c	1f	1a	.	1cc
.	.	.	.	1r	.
2F	2c	2f	2a	.	2cc
=56	=56	=56	=56	=56	=56
1F	1A	1f	1a	0r	1cc
1G	1B	1d	1g	.	1b
=57	=57	=57	=57	=57	=57
1.A	1.c	0r	2f	0r	2.a
.	.	.	4e	.	.
.	.	.	4d	.	4b
.	.	.	2e	.	2cc
2A	2c	.	2f#	.	2cc
=58	=58	=58	=58	=58	=58
1G	1d	1r	0g	1r	1b
1G	1r	1d	.	1gg	1b
=59	=59	=59	=59	=59	=59
1A	1r	1.c	2r	1ff	1a
.	.	.	2c	.	.
1c	2r	.	2e	1ee	1g
.	2c	2c	2e	.	.
=60	=60	=60	=60	=60	=60
1B	1G	1d	2.g	1dd	0r
.	.	.	4f	.	.
1c	1g	1e	2e	[1cc	.
.	.	.	2g	.	.
=61	=61	=61	=61	=61	=61
0G	1r	0d	0g	2cc]	1r
.	.	.	.	4b	.
.	.	.	.	4a	.
.	1G	.	.	1b	1gg
=62	=62	=62	=62	=62	=62
1r	1A	2r	2r	0cc	1ff
.	.	2a	2c	.	.
1C	1c	[1g	2e	.	1ee
.	.	.	2e	.	.
=63	=63	=63	=63	=63	=63
1G	1B	1g]	0g	2r	1dd
.	.	.	.	2dd	.
1C	1c	1e	.	2ee	[1cc
.	.	.	.	2cc	.
=64	=64	=64	=64	=64	=64
1G	[0G	1d	0g	1dd	2cc]
.	.	.	.	.	4b
.	.	.	.	.	4a
1G	.	1d	.	1dd	1b
=65	=65	=65	=65	=65	=65
0C	0G]	0c	0g	0ee	0cc
*	*	*	*	*-	*-
!! Crucifixus
*Icalto	*Icalto	*Icant	*Icant
!Altus 2	!Altus 1	!Cantus 2	!Cantus 1
*clefG2	*clefG2	*clefG2	*clefG2
*k[]	*k[]	*k[]	*k[]
*G:mix	*G:mix	*G:mix	*G:mix
*M4/2	*M4/2	*M4/2	*M4/2
=66	=66	=66	=66
0r	0g	0r	1r
.	.	.	[1dd
=67	=67	=67	=67
0r	1b	0r	2dd]
.	.	.	2dd
.	1cc	.	1ee
=68	=68	=68	=68
0g	1b	1r	2.dd
.	.	.	4cc
.	2r	[1dd	2.b
.	[2g	.	.
.	.	.	4a
=69	=69	=69	=69
1b	2g]	2dd]	0g
.	2g	2dd	.
1cc	1c	1ee	.
=70	=70	=70	=70
1b	1g	1dd	0r
2.cc	1r	2.ee	.
4b	.	4dd	.
=71	=71	=71	=71
2a	1r	2cc	1r
2g#	.	2b	.
2a	2.cc	4a	2.ee
.	.	4b	.
4A	.	4cc	.
4B	4b	4dd	4dd
=72	=72	=72	=72
4c	2a	0ee	2cc
4d	.	.	.
2e	2g#	.	2b
4A	1a	.	1cc
4B	.	.	.
4c	.	.	.
4d	.	.	.
=73	=73	=73	=73
1e	2g#	2ee	2b
.	2g#	2b	2ee
1r	2.a	2.cc	2.ee
.	4a	4cc	4ee
=74	=74	=74	=74
0r	2d	2dd	2ff
.	2a	2cc	2ee
.	2.cc	4a	2.ee
.	.	4b	.
.	.	4cc	.
.	4b	4dd	4dd
=75	=75	=75	=75
0r	4a	2ee	4cc
.	4g	.	4b
.	4f	2.ff	4a
.	4e	.	4g
.	2d	.	4a
.	.	4dd	4b
.	2c	2ee	[2cc
=76	=76	=76	=76
1r	1g	1dd	2cc]
.	.	.	2b
[1c	1r	1ee	1cc
=77	=77	=77	=77
1c]	1g	1cc	1ee
1d	1f#	1a	1dd
=78	=78	=78	=78
2e	2g	2g	2b
2f#	1a	2dd	2a
2g	.	2dd	2b
2e	[2g	2cc#	2g
=79	=79	=79	=79
1d	2g]	0dd	1a
.	2f#	.	.
1G	1g	.	1b
=80	=80	=80	=80
1g	2r	1b	2r
.	2g	.	2dd
2.f	2.a	2.cc	2.ff
4f	4a	4cc	4ff
=81	=81	=81	=81
2f	2a	2cc	2ff
2c	2g	2cc	2ee
2.d	2.f	2.a	2.dd
4d	4f	4a	4dd
=82	=82	=82	=82
2A	2e	2ee	2cc#
2.a	2d	2ff	2dd
.	1e	1ee	1b
8g#	.	.	.
8f#	.	.	.
2g#	.	.	.
=83	=83	=83	=83
1a	1A	2r	2r
.	.	2ee	2cc
2r	1r	2ff	2dd
2e	.	2ee	2cc
=84	=84	=84	=84
2f	0r	4cc	4a
.	.	4dd	4b
2e	.	4ee	4cc
.	.	4ff	4dd
4c	.	2gg	4ee
4d	.	.	4ff
4e	.	2ee	[2gg
4f	.	.	.
=85	=85	=85	=85
1g	2r	2dd	4gg]
.	.	.	4ff
.	2e	2b	2ee
2a	2f	2a	4cc
.	.	.	4dd
2b	2e	2g	4ee
.	.	.	4ff
=86	=86	=86	=86
1cc	4c	2.gg	2.ee
.	4d	.	.
.	4e	.	.
.	4f	8ff	8dd
.	.	8ee	8cc
1r	2g	2dd	2b
.	2a	2cc	[2cc
=87	=87	=87	=87
0r	0g	1dd	2cc]
.	.	.	4b
.	.	.	4a
.	.	2r	2b
.	.	2g	2b
=88	=88	=88	=88
0r	0r	2a	2cc
.	.	2b	2dd
.	.	2cc	2ee
.	.	2dd	2ff
=89	=89	=89	=89
2r	0r	4ee	4gg
.	.	4ff	4ff
2c	.	4gg	2ee
.	.	4ee	.
2d	.	2ff	2dd
2e	.	2ee	[2cc
=90	=90	=90	=90
2f	1r	1dd	2cc]
2g	.	.	2b
1a	2r	1cc	2cc
.	2cc	.	2ee
=91	=91	=91	=91
1g	2cc	1r	2ee
.	2b	.	2dd
1r	2.cc	2r	2.ee
.	.	2gg	.
.	4cc	.	4ee
=92	=92	=92	=92
2r	2b	2gg	2dd
2cc	2a	2ff#	2cc
2cc	2g	2.gg	1dd
2b	2g	.	.
.	.	4gg	.
=93	=93	=93	=93
2.cc	2.a	2ff	0r
.	.	2.ee	.
4cc	4a	.	.
2b	2g#	.	.
.	.	4dd	.
[2a	2a	4cc	.
.	.	8b	.
.	.	8a	.
=94	=94	=94	=94
2a]	1e	1b	1r
2g#	.	.	.
2a	2r	2a	2r
2A	2a	2cc#	2ee
=95	=95	=95	=95
2.d	2.a	2.dd	2.ff
4d	4a	4dd	4ff
2d	2a	2dd	2ff
2c#	2a	2ee	2ee
=96	=96	=96	=96
2d	2a	2ff	2dd
2d	2a	2ff	2dd
2e	2g	2ee	2b
2g	2c	2ee	2cc
=97	=97	=97	=97
2.f#	2.d	2.dd	2.a
4f#	4d	4dd	4a
2f#	2d	2dd	2a
[2g	2G	[2b	[2dd
=98	=98	=98	=98
2g]	1g	2b]	2dd]
2e	.	2cc	2ee
1d	2a	1dd	1ff
.	2b	.	.
=99	=99	=99	=99
1c	1cc	2g	1ee
.	.	4cc	.
.	.	4dd	.
1c	2r	4ee	4cc
.	.	4ff	4dd
.	4c	2gg	4ee
.	4d	.	4ff
=100	=100	=100	=100
1c	4e	2ee	2gg
.	4f	.	.
.	2g	2cc	2ee
1c	2e	4gg	2cc
.	.	4ff	.
.	2c	4ee	4gg
.	.	4dd	4ff
=101	=101	=101	=101
1.c	1.g	4cc	4ee
.	.	4b	4dd
.	.	1cc	1ee
2G	2g	2b	2dd
=102	=102	=102	=102
2G	1g	2b	2dd
1g	.	1dd	1b
.	1r	.	.
2e	.	2ee	2cc
=103	=103	=103	=103
1f	2r	2cc	1a
.	1a	2dd	.
1e	.	[1ee	1b
.	2g#	.	.
=104	=104	=104	=104
2r	1a	0ee]	2r
2a	.	.	2cc
2a	1e	.	2cc
2g	.	.	2b
=105	=105	=105	=105
4f	0r	2r	4a
4g	.	.	4b
4a	.	2ee	4cc
4b	.	.	4dd
2cc	.	2ee	4ee
.	.	.	4ff
2b	.	2dd	2gg
=106	=106	=106	=106
1a	0r	4cc	2ff
.	.	4dd	.
.	.	4ee	1ee
.	.	4ff	.
[1g	.	2gg	.
.	.	4ff	4dd
.	.	4ee	4cc
=107	=107	=107	=107
0g]	1r	2dd	2b
.	.	2cc	1cc
.	2r	1dd	.
.	[2g	.	2b
=108	=108	=108	=108
1c	2g]	2ee	2cc
.	2e	1cc	1ee
2r	1f	.	.
[2a	.	2a	2dd
=109	=109	=109	=109
2a]	1e	1b	1ee
2g#	.	.	.
1a	2r	2a	[1ee
.	2a	2cc	.
=110	=110	=110	=110
1e	2a	2cc	1ee]
.	2g	2b	.
1r	4f	4a	1r
.	4g	4b	.
.	4a	4cc	.
.	4b	4dd	.
=111	=111	=111	=111
2r	1cc	1ee	2r
2c	.	.	2ee
2c	1g	1gg	2ee
2B	.	.	2dd
=112	=112	=112	=112
4A	1a	2r	4cc
4B	.	.	4dd
4c	.	2ee	4ee
4d	.	.	4ff
4e	[1g	2ee	2.gg
4f	.	.	.
2g	.	2dd	.
.	.	.	4ff
=113	=113	=113	=113
0c	2g]	4cc	4ee
.	.	4dd	4dd
.	2g	4ee	4cc
.	.	4ff	4b
.	1g	1ee	1cc
=114	=114	=114	=114
0G	0g	0dd	0b
*-	*-	*-	*-
!! Et in Spiritum
**kern	**kern	**kern	**kern	**kern	**kern
*Ibass	*Itenor	*Itenor	*Icalto	*Icant	*Icant
!Bassus	!Tenor 2	!Tenor 1	!Altus	!Cantus 2	!Cantus 1
*clefF4	*clefGv2	*clefGv2	*clefG2	*clefG2	*clefG2
*k[]	*k[]	*k[]	*k[]	*k[]	*k[]
*G:mix	*G:mix	*G:mix	*G:mix	*G:mix	*G:mix
*M4/2	*M4/2	*M4/2	*M4/2	*M4/2	*M4/2
=115	=115	=115	=115	=115	=115
1G	1d	0r	1g	1b	1dd
2G	2d	.	2g	2b	2dd
[2C	[2c	.	[2g	[2cc	[2ee
=116	=116	=116	=116	=116	=116
4C]	4c]	0r	4g]	4cc]	4ee]
4C	4c	.	4g	4cc	4ee
2C	2c	.	2g	2cc	2ee
1F	1A	.	1a	1cc	1ff
=117	=117	=117	=117	=117	=117
2D	2d	0r	2a	2dd	2ff
2.A	2.e	.	2.a	2.cc#	2.ee
4A	4e	.	4a	4cc#	4ee
2A	2e	.	2a	2cc#	2ee
=118	=118	=118	=118	=118	=118
2.D	2.d	0r	2.a	2.dd	2.ff
4D	4d	.	4a	4dd	4ff
2F	2A	.	2a	2cc	2ff
2C	2c	.	2g	2cc	2ee
=119	=119	=119	=119	=119	=119
1G	1d	1r	1g	1b	1dd
1D	1d	2r	2f#	2a	2dd
.	.	2d	2f#	2dd	2a
=120	=120	=120	=120	=120	=120
0r	0r	2d	2f#	2dd	2a
.	.	1G	1g	1dd	1b
.	.	2G	2g	2dd	2b
=121	=121	=121	=121	=121	=121
0r	0r	2.c	2.g	2.ee	2.cc
.	.	4c	4g	4ee	4cc
.	.	1A	2a	1ee	4cc
.	.	.	.	.	4b
.	.	.	2cc	.	2a
=122	=122	=122	=122	=122	=122
0r	0r	2e	2b	2ee	2g#
.	.	2f	1a	2dd	2a
.	.	1e	.	1ee	1b
.	.	.	2g#	.	.
=123	=123	=123	=123	=123	=123
2r	2r	2A	2a	1ee	2cc#
1A	1c#	1e	1a	.	1ee
.	.	.	.	1r	.
2D	2d	2f#	2a	.	2dd
=124	=124	=124	=124	=124	=124
1G	1B	1g	1d	0r	1dd
2G	2B	2d	2g	.	2dd
2G	2B	2d	2g	.	2dd
=125	=125	=125	=125	=125	=125
2.C	2.c	2.e	2.g	0r	2.cc
4C	4c	4e	4g	.	4cc
1C	1c	1e	1g	.	1cc
=126	=126	=126	=126	=126	=126
2.F	2.A	2.f	2.a	2.ff	2.cc
4F	4A	4f	4a	4ff	4cc
2F	2A	2c	2a	2ff	2cc
2F	2A	2c	2a	2ff	2cc
=127	=127	=127	=127	=127	=127
0BB-	0B-	2.d	1f	0dd	0ff
.	.	4e	.	.	.
.	.	2f	1d	.	.
.	.	2d	.	.	.
=128	=128	=128	=128	=128	=128
1C	1G	1e	1g	1cc	1ee
2r	2r	2r	2r	2r	2r
2F	2A	2a	2f	2cc	2ff
=129	=129	=129	=129	=129	=129
2.F	2.A	2.f	2.a	2.cc	2.ff
4F	4A	4f	4a	4cc	4ff
2F	2A	2f	2a	2cc	2ff
2F	2A	2c	2a	2cc	2ff
=130	=130	=130	=130	=130	=130
0BB-	0B-	2.d	1f	0ff	0dd
.	.	4e	.	.	.
.	.	2f	1d	.	.
.	.	2d	.	.	.
=131	=131	=131	=131	=131	=131
1C	2G	1e	2g	2ee	2cc
.	2c	.	2g	2cc	2ee
1r	2B	1r	2g	2dd	2dd
.	[2c	.	[2g	[2ee	[2cc
=132	=132	=132	=132	=132	=132
1r	2c]	1r	2g]	2ee]	2cc]
.	2G	.	2g	2dd	2b
2r	4A	2r	2e	[1cc	1a
.	4B	.	.	.	.
2F	4c	2a	2f	.	.
.	4d	.	.	.	.
=133	=133	=133	=133	=133	=133
2E	4e	2g	2g	0cc]	0r
.	4d	.	.	.	.
1F	4c	1f	1a	.	.
.	4B	.	.	.	.
.	2.c	.	.	.	.
2C	.	2e	2g	.	.
.	4B	.	.	.	.
=134	=134	=134	=134	=134	=134
1D	1A	2.d	1f	2r	2r
.	.	.	.	1ff	2dd
.	.	8c	.	.	.
.	.	8B	.	.	.
1F	1f	2A	1a	.	4cc
.	.	.	.	.	4b
.	.	[2c	.	2cc	4a
.	.	.	.	.	4b
=135	=135	=135	=135	=135	=135
1C	2e	2c]	0g	4ee	4cc
.	.	.	.	4ff	4dd
.	2.e	2c	.	4gg	4ee
.	.	.	.	4ff	4ff
2.E	.	2B	.	4ee	4gg
.	4f	.	.	4dd	4ff
.	[2g	2G	.	2cc	2ee
4F	.	.	.	.	.
=136	=136	=136	=136	=136	=136
0G	4g]	2r	[0g	2b	2dd
.	4f	.	.	.	.
.	2e	2.G	.	2cc	1cc
.	1d	.	.	1dd	.
.	.	4A	.	.	.
.	.	2B	.	.	2b
=137	=137	=137	=137	=137	=137
1C	0c	1G	1g]	1ee	0cc
2r	.	2r	2r	2r	.
2c	.	2e	2g	2cc	.
=138	=138	=138	=138	=138	=138
2A	0r	2e	2a	2cc	0r
2c	.	2e	2g	2cc	.
1F	.	1f	1a	1cc	.
=139	=139	=139	=139	=139	=139
2F	0r	2f	2a	2cc	0r
2G	.	2d	2g	2b	.
2.A	.	2.c	2e	2.cc	.
.	.	.	2f#	.	.
4A	.	4c	.	4cc	.
=140	=140	=140	=140	=140	=140
1G	2r	2d	1g	2b	2r
.	2G	2g	.	2dd	2b
1r	2c	2e	1r	2ee	2cc
.	2G	2g	.	2dd	2b
=141	=141	=141	=141	=141	=141
0r	2.g	2.c	0r	2.ee	2.cc
.	4g	4c	.	4ee	4cc
.	2e	2c	.	2ee	2cc
.	[2a	2d	.	2dd	2f
=142	=142	=142	=142	=142	=142
0r	2a]	2.e	0r	2b	2g
.	1g	.	.	2cc	2g
.	.	4e	.	.	.
.	.	1d	.	[1dd	1a
.	2f#	.	.	.	.
=143	=143	=143	=143	=143	=143
2r	2g	2r	2r	1dd]	1b
2G	2g	2d	2b	.	.
2.A	2.e	2.c	2.cc	1r	1r
4A	4f#	4c	4cc	.	.
=144	=144	=144	=144	=144	=144
2G	2g	2d	2b	0r	0r
2E	2g	2e	2g	.	.
2F	2c	2A	2a	.	.
2E	2c	[2c	2g	.	.
=145	=145	=145	=145	=145	=145
1D	1d	2c]	1f	1r	1r
.	.	2B	.	.	.
1C	1G	2c	2e	2r	2r
.	.	[2c	[2g	[2cc	[2ee
=146	=146	=146	=146	=146	=146
0r	0r	2c]	2g]	2cc]	2ee]
.	.	2c	2g	2cc	2ee
.	.	2c	2g	2cc	2ee
.	.	2c	2g	2cc	2ee
=147	=147	=147	=147	=147	=147
0r	0r	1f	1a	1cc	1ff
.	.	1B-	2b-	1dd	2ff
.	.	.	2b-	.	[2ff
=148	=148	=148	=148	=148	=148
0r	0r	2c	2a	2.cc	2ff]
.	.	2c	1g	.	2ee
.	.	.	.	4b	.
.	.	1d	.	1a	1dd
.	.	.	2f#	.	.
=149	=149	=149	=149	=149	=149
1r	1r	1G	1g	1b	1dd
[1G	[1d	2.B	2r	2.dd	1b
.	.	.	[2g	.	.
.	.	4A	.	4cc	.
=150	=150	=150	=150	=150	=150
2G]	2d]	2G	2g]	2b	1dd
2D	2d	2A	2f	2a	.
[1A	[1e	[1c	4e	[1a	2.cc
.	.	.	4d	.	.
.	.	.	4c	.	.
.	.	.	4B	.	4dd
=151	=151	=151	=151	=151	=151
1A]	1e]	1c]	2A	1a]	1ee
.	.	.	1a	.	.
1E	1e	1B	.	1b	[1ee
.	.	.	2g#	.	.
=152	=152	=152	=152	=152	=152
2.A	2.e	2.c	1a	0r	1ee]
4A	4e	4c	.	.	.
2A	2f	2c	1r	.	1r
2G#	2e	2B	.	.	.
=153	=153	=153	=153	=153	=153
1A	2f	1c	0r	0r	0r
.	1e	.	.	.	.
2G	.	2B	.	.	.
[2F	2d	[2A	.	.	.
=154	=154	=154	=154	=154	=154
2F]	1c	2A]	0r	0r	0r
2E	.	2G	.	.	.
1D	1f	2A	.	.	.
.	.	2B	.	.	.
=155	=155	=155	=155	=155	=155
1C	2e	1c	2.g	2.cc	2.ee
.	4c	.	.	.	.
.	4c	.	4g	4cc	4ee
1r	2c	1r	2g	2cc	2ee
.	2G	.	2g	2b	2dd
=156	=156	=156	=156	=156	=156
0r	1c	0r	1g	1cc	1ee
.	2d	.	2f	1a	2dd
.	[2f	.	[2a	.	[2cc
=157	=157	=157	=157	=157	=157
0r	2f]	0r	2a]	2ff	2cc]
.	2g	.	1g	2ee	2b
.	1d	.	.	1dd	1a
.	.	.	2f#	.	.
=158	=158	=158	=158	=158	=158
2r	2G	2r	0g	1dd	1b
2G	2B	2d	.	.	.
1G	1B	1d	.	1r	1r
=159	=159	=159	=159	=159	=159
2C	2c	2e	0r	0r	0r
2E	2G	2g	.	.	.
2D	2A	2f	.	.	.
2C	2c	2e	.	.	.
=160	=160	=160	=160	=160	=160
2.G	2.B	2.d	2r	2r	2r
.	.	.	2g	2dd	2b
4G	4B	4d	.	.	.
1G	1B	1d	1g	1dd	1b
=161	=161	=161	=161	=161	=161
0r	0r	0r	2c	2ee	2cc
.	.	.	2e	2gg	2g
.	.	.	2d	2ff	2a
.	.	.	2c	2ee	2cc
=162	=162	=162	=162	=162	=162
0r	0r	0r	2.g	2.dd	2.b
.	.	.	4g	4dd	4b
.	.	.	[1g	4dd	4b
.	.	.	.	4cc	4cc
.	.	.	.	4b	4dd
.	.	.	.	4a	4ee
=163	=163	=163	=163	=163	=163
0r	0r	0r	2g]	2b	2.dd
.	.	.	2f#	2.a	.
.	.	.	.	.	4cc
.	.	.	2g	.	2b
.	.	.	.	4g	.
.	.	.	2e	[2g	4a
.	.	.	.	.	4g
=164	=164	=164	=164	=164	=164
1r	1r	1r	1d	2g]	2a
.	.	.	.	2f#	2a
2r	2r	2r	1g	2g	2b
2G	2d	2B	.	2dd	2g
=165	=165	=165	=165	=165	=165
1G	1d	1B	2r	1dd	1gg
.	.	.	2g	.	.
2C	2e	2c	1g	1gg	2ee
2E	2g	2B	.	.	2ee
=166	=166	=166	=166	=166	=166
2D	2f	2d	2a	2r	2ff
2C	2e	2G	2cc	2g	1gg
2.G	2.d	2.B	2b	2g	.
.	.	.	2g	2b	[2gg
4G	4d	4B	.	.	.
=167	=167	=167	=167	=167	=167
1.G	1d	1B	2.b	2.dd	4gg]
.	.	.	.	.	4ff
.	.	.	.	.	1.dd
.	.	.	4b	4dd	.
.	1r	2.d	2b	2g	.
2F#	.	.	[2a	2a	.
.	.	4c	.	.	.
=168	=168	=168	=168	=168	=168
2G	1G	2B	4a]	2b	1r
.	.	.	4g	.	.
2E	.	4A	1g	2cc	.
.	.	4G	.	.	.
1D	2.d	1A	.	2dd	2r
.	.	.	2f#	[2dd	2a
.	4c	.	.	.	.
=169	=169	=169	=169	=169	=169
0G	2B	[0G	1g	2dd]	2b
.	2e	.	.	1cc	2cc
.	1d	.	2r	.	2dd
.	.	.	2d	2b	[2gg
=170	=170	=170	=170	=170	=170
0C	0c	1G_	2.e	0cc	4gg]
.	.	.	.	.	4ff
.	.	.	.	.	4ee
.	.	.	4f	.	4dd
.	.	1G_	1g	.	1ee
=171	=171	=171	=171	=171	=171
0G	0d	0G]	0g	0b	0dd
==	==	==	==	==	==
*-	*-	*-	*-	*-	*-
!!!CDT: 1525/^1526/-1594/2/2
!!!OCY: Italia
!!!AGN: Mass (Parody)
!!!AST: renaissance, vocal
!!!ASW: Motet (Palestrina)
!!!PWK: Masses, Book 9
!!!RNB: Cadence finals: C
!!!YOR: Le Opere Complete, v. 25, p. 209
!!!YOO: Rome, Italy: Fratelli Scalera
!!!END: 1992//
!!!EED: John Miller
!!!YEC: Copyright 2000, John Miller
!!!YEN: United States of America
!!!YEM: Rights to all derivative electronic formats reserved.
!!!YEM: Refer to licensing agreement for further details.
!!!YEM: This file must be accompanied by the licensing agreement.
!!!YEM: A copy of the licensing agreement may be found at http://www.music-cog.ohio-state.edu/HumdrumDatabases/Palestrina/license.txt
!!!EMD: converted to Humdrum by Bret Aarden
